dist/img/svg/ic_gps.svg

<svg width="18" height="17" viewBox="0 0 18 17" xmlns="http://www.w3.org/2000/svg">
    <path
        d="M9.3467 5.40908C7.63896 5.40908 6.2558 6.79228 6.2558 8.49998C6.2558 10.2077 7.63896 11.5909 9.3467 11.5909C11.0544 11.5909 12.4376 10.2077 12.4376 8.50002C12.4376 6.79231 11.0544 5.40908 9.3467 5.40908ZM16.2549 7.72727C15.8994 4.50499 13.3417 1.94727 10.1194 1.59183V0H8.57395V1.59183C5.35167 1.94727 2.79395 4.50499 2.43851 7.72727H0.84668V9.27273H2.43851C2.79395 12.495 5.35171 15.0527 8.57398 15.4082V17H10.1194V15.4082C13.3417 15.0527 15.8994 12.495 16.2549 9.27273H17.8467V7.72727H16.2549ZM9.3467 13.9091C6.36012 13.9091 3.93762 11.4866 3.93762 8.50002C3.93762 5.51344 6.36012 3.09094 9.3467 3.09094C12.3333 3.09094 14.7558 5.5134 14.7558 8.50002C14.7558 11.4866 12.3333 13.9091 9.3467 13.9091Z" />
</svg>

<svg width="18" height="17" viewBox="0 0 18 17" xmlns="http://www.w3.org/2000/svg"><path d="M9.347 5.41a3.09 3.09 0 100 6.18 3.09 3.09 0 100-6.18zm6.908 2.317a6.95 6.95 0 00-6.136-6.135V0H8.574v1.592a6.95 6.95 0 00-6.135 6.135H.847v1.546h1.592a6.95 6.95 0 006.135 6.135V17h1.545v-1.592a6.95 6.95 0 006.136-6.135h1.592V7.727h-1.592zM9.347 13.91a5.41 5.41 0 010-10.818 5.41 5.41 0 010 10.818z"/></svg>
